X:1
T: Miss Corbett's Strathspey
C:R. Mackintosh
R:Strathspey
Q: 128
K:G
M:4/4
L:1/16
|:G4 B3c dB3 g4|G3d cBAG FD3 D=F3|EC3 EG3 FD3 cA3|Bd3 cA3 G4 G4|
G4 B3c dB3 g4|G3d cBAG FD3 D=F3|EC3 EG3 FD3 cA3|Bd3 cA3 G4 G4|
G4 g3d BG3 dB3|Aa3 a3e cA3 af3|db3 b3g dB3 bg3|ec'3 af3 g4 G2AB|
c3B ca3 B3A Bg3|E2c2 A3G F2D2 D3=F|EC3 cE3 FD3 ec3|Bd3 cA3 G4 G4:|
